X:200
T: Fáj a fának, ha a fejsze levágja
M:1/4
L:1/4
K:Eb
C/D/E/D/ C/D/E/F/ | GFE z |
C/C/E/E/ F/F/G/G/ | F<G G z |
c/c/B/A/ G/F/B/G/ | E/D/C/D/ E z |
G/E/D/C/ G/G/G/E/ | D<C C z |

